X:212
T: Yao nuan zai ge
N: C1704
O: China,Taiwan
S: IV, 637]
R: Xiaodiao]
M: 2/4
L: 1/16
K: Bb
f4d4 | f8 | f4d4 | f8 |
b4b2b2 | f4d4 | f4d4 | B8 |
d4f2f2 | b4b2b2 | f4d4 | f4d4 | f6dB | B8

@@@ Tune index: 6767
